X:1
T:Title
%%score { ( 1 3 ) | ( 2 4 ) }
L:1/8
M:4/4
K:D
V:1 treble nm="Grand Piano"
V:3 treble 
V:2 bass 
V:4 bass 
V:1
 z4 z2[Q:1/4=100] F2 | F3 F A2 G2 | F[CE]D[CE] F2 A2 | d3 d dd[Ac][GB] | [FA]2 [DF]2 [CE]3 [CG] | %5
 F3 F FF[EG][=F^G] | [FA]2 [E^A]2 [DB]3 [Fd] |[M:17/16] [Ac]cedcB[^Gd]3/2[Gc] | %8
[M:7/8] A-A-A- A- A3 |[M:6/8] [A,FA]3 .[DFA]3 | [Fd]3 [FA]2 [DF] | [EG]2 [DF] [CE]2 [GB] | %12
 [A,FA]2 [A,EG] [A,DF]2 [DFA] | [Fd]>[Fd][Fd] dcB | z3 A3 | %15
 [B,EG]3 [A,DF]3[Q:1/4=99][Q:1/4=97][Q:1/4=96][Q:1/4=94][Q:1/4=93][Q:1/4=91][Q:1/4=90][Q:1/4=88][Q:1/4=87][Q:1/4=85][Q:1/4=84][Q:1/4=82][Q:1/4=81][Q:1/4=79][Q:1/4=78][Q:1/4=76] | %16
 [G,CE]3 [F,D]3 |] %17
V:2
 z4 z2 [D,A,D]2 | [D,A,D]3 [D,D] [D,=CD]2 [D,B,D]2 | %2
 [D,A,D][A,,G,][B,,F,][A,,A,] [D,A,D]2 [E,G,C]2 | [F,A,D]3 [F,A,D] [G,B,D][G,B,D][G,D][G,D] | %4
 [D,D]2 [D,A,]2 [A,,A,]3 [A,,A,] | [D,A,D]3 [D,A,D] [D,A,D][D,A,D][D,A,][D,B,] | %6
 [D,A,]2 [C,F,]2 [B,,F,]3 [B,,B,] | %7
[M:17/16] [E,A,][A,E][E,CE][E,B,E][E,A,E][E,^G,E][E,B,]3/2[E,D] |[M:7/8] A,2- [A,-D]2 [A,E]3 | %9
[M:6/8] D,3 z A,F, | [D,A,]3 [D,D]2 [D,A,] | [A,,A,]2 [A,,A,] [A,,A,]2 [A,,A,] | A,,B,,C, D,2 D, | %13
 [D,A,]>[D,A,][D,A,][K:treble] [G,B,G]2 [G,DG] | D[DF][K:bass][D,A,D] [F,D]A,D | G,,3 A,,3 | %16
 A,,3 D,3 |] %17
V:3
 x8 | x8 | x8 | x8 | x8 | x8 | x8 |[M:17/16] x17/2 |[M:7/8] z E F2 G3 |[M:6/8] x6 | x6 | x6 | x6 | %13
 x6 | [GB]AF z F2 | x6 | x6 |] %17
V:4
 x8 | x8 | x8 | x8 | x8 | x8 | x8 |[M:17/16] x17/2 |[M:7/8] C2 z z z z2 |[M:6/8] z3 D,3 | x6 | x6 | %12
 x6 | x3[K:treble] x3 | .D,3[K:bass] D,3 | x6 | x6 |] %17

